X: 68
T:Pibddawns y Blodau
T:The Flowers Hornpipe
M:C
L:1/8
Q:180
S:Cadw Twmpath Collection
R:Hornpipe
A:Wales
Z:brian_martin12345@yahoo.com
K:G
G>A|B>gf>g e>cB>A|G>dB>G F>AD>F|G>DA>D B>Dc>B|(3ABA (3GFE D>FA>c|
B>gf>g e>cB>A|G>dB>G F>AD>F|G>FG>E D>cB>A|G2B2G2:||
B2|c>AF>A G>Bd>g|g>fg>a b>gf>g|e>c'd>b c>aB>g|f>ge>f d>ec>d|
B>gf>g e>cB>A|G>dB>G F>AD>F|G>FG>E D>cA>F|G2B2G2:||
